X:1
T:Wie Wohl Ist Mir, 98.98.99.89.98
T:Wie Wohl Ist Mir, 98.98.99.89.98
T:Geistreiches Gesangbuch (Halle, German
T:Public Domain Courtesy of the Cyber Hymnal™
C:Geistreiches Gesangbuch (Halle, German
Z:Public Domain
Z:Courtesy of the Cyber Hymnal™
%%score ( 1 2 ) ( 3 4 )
L:1/8
Q:1/4=125
M:4/4
K:Ab
V:1 treble 
V:2 treble 
V:3 bass 
V:4 bass 
V:1
 [CA]4 [Ec]2 [Ec]2 | [EB]4 [Ee]4 | [FA]2 [Ed]2 [Ec]4 | [EB]4 z4 | [Ec]4 [Ge]2 [FB]2 | [EB]4 [Ec]4 | %6
 [EA]3 [=DG] [EG]4 | [CA]4 [Ec]2 [Ec]2 | [EB]4 [Ee]4 | [FA]2 [Ed]2 [Ec]4 | [EB]4 z4 | %11
 [Ec]4 [Ge]2 [FB]2 | [EB]4 [Ec]4 | [EA]3 [=DG] [EG]4 | [EB]4 [EB]2 E2 | [CE]4 [EA]4 | %16
 [FA]2 [EG]2 F4 | E4 z4 | [B,E]4 [EA]2 [CA]2 | [EB]4 [Ec]4 | [Fd]2 [Ee]2 [Ec]4 | [Ec]4 [Ae]4 | %22
 [Ee]2 [Ec]2 [Ff]2 [FB]2 | [Ec]4 B4 | [CA]8 | [CE]4 [B,E]2 [G,D]2 | [A,C]4 E4 | %27
 [EA]2 [=DB]2 [EG]4 | [EG]4 z4 | [EB]4 [EB]2 [Ec]2 | [FA]4 [Ed]4 | [Ec]2 [Ec]2 [EB]4 | [EB]4 z4 | %33
 [Ec]4 [EA]2 F2 | [Fd]4 [EB]4 | [Ec]4 [EB]4 | [CA]8 |] %37
V:2
 x8 | x8 | x8 | x8 | x8 | x8 | x8 | x8 | x8 | x8 | x8 | x8 | x8 | x8 | x6 E2 | x8 | x4 (E2 =D2) | %17
 E4 x4 | x8 | x8 | x8 | x8 | x8 | x4 (E2 D2) | x8 | x8 | x4 E4 | x8 | x8 | x8 | x8 | x8 | x8 | %33
 x6 F2 | x8 | x8 | x8 |] %37
V:3
 [A,,A,]4 [A,,A,]2 [C,A,]2 | [E,G,]4 [C,A,]4 | [D,A,]2 [B,,G,]2 A,4 | [E,G,]4 z4 | %4
 A,4 [E,B,]2 [=D,B,]2 | [E,G,]4 [A,,A,]4 | [B,,F,]3 [B,,B,] [E,B,]4 | [A,,A,]4 [A,,A,]2 [C,A,]2 | %8
 [E,G,]4 [C,A,]4 | [D,A,]2 [B,,G,]2 A,4 | [E,G,]4 z4 | A,4 [E,B,]2 [=D,B,]2 | [E,G,]4 [A,,A,]4 | %13
 [B,,F,]3 [B,,B,] [E,B,]4 | [E,G,]4 [E,G,]2 [G,,B,]2 | [C,G,]4 [A,,C]4 | %16
 [F,,C]2 [G,,B,]2 [B,,B,]4 | [E,G,]4 z4 | [E,G,]4 [C,A,]2 [F,A,]2 | [E,G,]4 A,4 | %20
 [F,A,]2 [G,B,]2 A,4 | A,4 [A,C]4 | [G,B,]2 [A,C]2 [D,A,]2 [=D,A,]2 | [E,A,]4 [E,G,]4 | [A,,A,]8 | %25
 [A,,A,]4 [G,,E,]2 [B,,E,]2 | [A,,E,]4 [G,,B,]4 | [F,,C]2 [B,,B,]2 [E,B,]4 | [E,B,]4 z4 | %29
 [E,G,]4 [G,,B,]2 [A,,A,]2 | [D,A,]4 [B,,G,]4 | [A,,A,]2 [C,A,]2 [E,A,]4 | [E,G,]4 z4 | %33
 [A,,A,]4 [C,A,]2 [D,A,]2 | [B,,B,]4 [E,G,]4 | [A,,A,]4 (A,2 G,2) | [A,,A,]8 |] %37
V:4
 x8 | x8 | x4 (A,,2 C,2) | x8 | A,4 x4 | x8 | x8 | x8 | x8 | x4 (A,,2 C,2) | x8 | A,4 x4 | x8 | %13
 x8 | x8 | x8 | x8 | x8 | x8 | x4 A,4 | x4 A,4 | A,4 x4 | x8 | x8 | x8 | x8 | x8 | x8 | x8 | x8 | %30
 x8 | x8 | x8 | x8 | x8 | x4 E,4 | x8 |] %37

